images/ICONOS/VALORES/CERCANIA ICON.svg

<svg width="51" height="51" viewBox="0 0 51 51" fill="none" xmlns="http://www.w3.org/2000/svg">
<path d="M50.963 41.749C50.9242 40.6383 50.9058 39.4815 50.1857 38.5169C49.5929 37.7222 48.8876 37.0477 48.0936 36.4527C47.0319 35.658 45.8096 35.2071 44.554 34.7322C46.0681 33.4294 47.2037 31.9343 47.4991 29.9293C47.6025 29.6613 47.4862 29.3712 47.5416 29.1217C47.8647 27.6821 47.44 26.3775 46.8159 25.1338C46.502 24.5091 46.358 23.8919 46.4245 23.2192C46.4485 22.9661 46.4725 22.724 46.4245 22.4727C46.3488 22.0827 46.4669 21.8443 46.8861 21.6928C47.5563 21.4526 48.2414 21.2142 48.8174 20.7762C50.1192 19.7894 50.1395 18.3701 49.8053 17.0193C49.3455 15.1694 48.6494 13.388 47.4234 11.8634C46.6811 10.9394 45.4108 10.4681 44.2752 10.8193C43.7046 10.9967 43.1544 11.2388 42.6023 11.4716C42.2866 11.6047 42.0576 11.5899 41.8379 11.285C41.199 10.4016 40.3903 9.67166 39.6092 8.92138C38.4903 7.84585 38.4829 7.85325 39.0387 6.39888C39.6388 4.82994 39.4523 3.68234 38.1413 2.61051C36.341 1.13767 34.2066 0.294986 31.9059 0.0436603C30.5949 -0.0986346 29.5424 0.553704 28.9313 1.77707C28.7263 2.18917 28.5417 2.61606 28.4013 3.05218C28.2555 3.51048 27.9896 3.68604 27.5243 3.59179C26.5198 3.38667 25.5006 3.51787 24.4887 3.46982C23.9422 3.44395 23.3052 3.87084 22.8897 3.48461C22.5204 3.13904 22.417 2.50887 22.1899 2.00622C21.5695 0.635016 20.2752 -0.17625 18.87 0.0325724C16.8592 0.333794 15.0036 1.12104 13.3159 2.21874C11.6283 3.31644 11.2885 4.74493 12.0566 6.6077C12.1711 6.8849 12.269 7.16949 12.4019 7.43745C12.5589 7.75715 12.5146 8.00108 12.221 8.21915C11.3439 8.86779 10.6404 9.69938 9.85753 10.4497C9.47716 10.8137 9.28328 11.5086 8.77921 11.5437C8.30467 11.5788 7.79875 11.1999 7.30759 11.0041C5.76212 10.3868 4.37544 10.7435 3.39498 12.0777C2.24465 13.6411 1.55223 15.4281 1.13125 17.3038C0.684406 19.2923 1.37867 20.5323 3.23434 21.3417C3.57224 21.4895 3.91383 21.6263 4.25912 21.7575C4.44561 21.8277 4.63764 21.933 4.58224 22.1419C4.30897 23.1804 4.65979 24.2818 4.10217 25.3149C3.40237 26.6121 3.14017 28.0406 3.47623 29.5246C3.59255 31.7458 4.86475 33.3129 6.44715 34.7414C5.48146 35.0611 4.56563 35.4289 3.70888 35.9167C1.37313 37.2491 -0.128028 39.0768 0.00860863 41.9615C0.0935449 43.7596 0.0233802 45.5632 0.027073 47.365C0.0289195 48.435 0.368665 48.7824 1.42114 48.7824C4.97554 48.7843 8.52809 48.7954 12.0825 48.7713C12.6327 48.7676 12.7915 48.9266 12.7804 49.4717C12.7546 50.7191 13.0685 51 14.3278 51C21.7818 51 29.2341 51 36.6882 51C37.9474 51 38.2558 50.7228 38.2281 49.4643C38.2152 48.9062 38.3961 48.7695 38.9334 48.7713C42.51 48.7935 46.0866 48.7843 49.6631 48.7806C50.5956 48.7806 50.9778 48.4091 50.9796 47.4944C50.9852 45.5836 51.0313 43.6635 50.963 41.749ZM43.4148 32.7585C40.3644 35.3162 36.0918 33.9172 34.7383 30.4301C34.6737 30.2619 34.5851 30.103 34.5094 29.9385C33.5843 29.9385 32.6592 29.9385 31.7342 29.9385C30.8442 31.8309 29.4889 33.2131 27.4652 33.884C24.7048 34.7987 21.4033 33.579 19.9114 31.0787C19.712 30.7442 19.5107 30.4116 19.3095 30.0771C18.846 28.6486 18.7131 27.2238 19.1137 25.7362C20.2161 21.6429 25.2587 19.6083 28.8445 21.8573C31.0491 23.2396 32.1755 25.2372 32.1441 27.854C32.1348 28.5692 31.8967 29.2492 31.7305 29.9385C32.6555 29.9385 33.5806 29.9385 34.5057 29.9385C33.8539 27.0557 35.3772 24.7679 37.1147 23.7755C40.4069 21.8924 44.4008 23.6443 45.3055 27.3421C45.5197 28.2162 45.444 29.0737 45.2963 29.9367C44.8716 31.0122 44.3287 31.9916 43.4148 32.7585ZM35.2996 34.7156C34.5444 35.0482 33.8373 35.3531 33.1356 35.6691C32.9916 35.7338 32.8734 35.695 32.7405 35.6488C32.0296 35.3956 31.3187 35.1461 30.5192 34.8634C31.4683 34.0669 32.3453 33.2538 33.0562 32.1173C33.6711 33.1706 34.3543 34.0226 35.2996 34.7156ZM17.3522 23.9363C16.9737 23.5519 16.5989 23.1638 16.2148 22.785C15.7015 22.2786 15.1162 21.8517 14.4515 21.5893C13.844 21.3491 13.7978 21.0238 14.0194 20.4787C15.9194 15.8051 19.3242 13.0683 24.3539 12.4603C30.0133 11.7765 35.2923 15.5372 37.0168 20.5859C37.183 21.07 37.1424 21.3288 36.6365 21.5413C35.4215 22.0532 34.5223 22.9882 33.6194 23.9954C32.8273 22.4948 31.8634 21.229 30.5044 20.292C26.433 17.4905 21.0507 18.4773 18.2496 22.554C17.9376 23.0086 17.6514 23.4761 17.3522 23.9363ZM17.9505 32.1524C18.6687 33.2021 19.4719 34.0706 20.5041 34.8375C19.6954 35.1314 18.9586 35.4012 18.2182 35.6617C18.1204 35.6968 17.9856 35.7079 17.8932 35.671C17.1768 35.3734 16.4659 35.0611 15.696 34.7266C16.658 34.0373 17.3061 33.1318 17.9505 32.1524ZM3.97846 19.2405C3.34882 18.9837 3.12356 18.5383 3.27312 17.8601C3.5944 16.4039 4.20372 15.0659 4.92568 13.7797C5.42053 12.8964 5.80644 12.8058 6.74443 13.1958C7.34083 13.4434 7.93723 13.6873 8.52624 13.9497C9.31837 14.3009 9.75413 14.2232 10.2601 13.5118C10.9599 12.5286 11.7926 11.6712 12.6069 10.7897C13.1294 10.2242 13.7904 9.84352 14.3868 9.37968C15.1439 8.79017 15.2565 8.41503 14.878 7.55018C14.5733 6.85349 14.3111 6.13832 14.0009 5.44347C13.7978 4.98887 13.8957 4.5971 14.265 4.33468C15.7311 3.29796 17.3338 2.57725 19.1304 2.33886C19.6363 2.27233 19.9557 2.483 20.1422 2.96717C20.4173 3.6768 20.7571 4.36055 21.0174 5.07572C21.2685 5.76872 21.7154 6.06809 22.4429 5.97569C22.9451 5.91286 23.451 5.88514 23.9514 5.81122C25.4286 5.59131 26.8891 5.76317 28.3515 5.95721C29.3486 6.08842 29.6495 5.88884 30.0373 4.95006C30.3179 4.26815 30.6189 3.59364 30.8922 2.90804C31.0621 2.48485 31.3501 2.32777 31.8025 2.33147C33.0267 2.34255 34.0533 2.95793 35.1409 3.38297C35.6302 3.57516 36.101 3.82279 36.5312 4.14804C37.0667 4.5509 37.2476 4.99811 36.9411 5.63751C36.6217 6.30279 36.3613 6.99393 36.0678 7.67029C35.7686 8.3559 35.8628 8.81789 36.45 9.24478C38.1044 10.446 39.5538 11.8467 40.7448 13.5155C41.2507 14.2233 41.6883 14.3027 42.4805 13.9516C43.1544 13.6541 43.8413 13.3843 44.5152 13.083C45.0673 12.8354 45.5289 12.9648 45.8447 13.4416C46.7827 14.8608 47.4086 16.4205 47.7668 18.0781C47.8739 18.5734 47.6302 18.9781 47.139 19.1869C46.5666 19.4309 45.9942 19.673 45.42 19.9113C44.0222 20.4916 44.0093 20.5082 44.1035 22.0458C42.739 21.1865 41.2895 20.7245 39.7016 20.7947C39.3249 20.8113 39.3212 20.5064 39.2492 20.2902C38.4331 17.8102 37.1092 15.6554 35.1649 13.9017C32.8734 11.8357 30.1998 10.6252 27.1254 10.239C20.4986 9.4074 13.7184 13.8407 11.7741 20.2477C11.6781 20.5637 11.595 20.8261 11.1408 20.8021C9.84276 20.7337 8.63149 21.0922 7.49962 21.7076C7.04355 21.9552 6.88291 21.8998 6.94015 21.362C7.00847 20.7152 6.67795 20.3235 6.09263 20.0961C5.3836 19.8208 4.68195 19.5288 3.97846 19.2405ZM5.93199 30.4227C5.8249 30.1215 5.70857 29.8239 5.59779 29.5246C5.35221 27.4308 6.01508 25.6734 7.57163 24.2615C9.31652 22.6778 12.4112 22.5872 14.2853 24.0342C16.2998 25.5884 16.9793 27.6156 16.4641 30.079C16.7004 30.1326 16.9386 30.1714 17.175 30.1972C17.3005 30.212 17.4261 30.2213 17.5516 30.2268C17.4261 30.2194 17.3005 30.2102 17.175 30.1972C16.9386 30.1714 16.7004 30.1307 16.4641 30.079C15.96 31.2857 15.2713 32.3483 14.1764 33.1115C11.2756 35.1314 7.11741 33.7768 5.93199 30.4227ZM12.762 42.4346C12.762 43.6118 12.7398 44.7908 12.7731 45.9661C12.7878 46.465 12.6069 46.5907 12.136 46.5833C10.5906 46.5593 9.04509 46.5741 7.49962 46.5741C5.93015 46.5741 4.36252 46.563 2.79304 46.5815C2.38498 46.5852 2.22065 46.4761 2.22618 46.0382C2.24834 44.423 2.1948 42.8042 2.25019 41.1909C2.30004 39.7624 3.18264 38.807 4.33667 38.1251C7.68796 36.1459 11.2534 35.8354 14.9629 36.8925C15.142 36.9442 15.4338 36.9239 15.4652 37.1697C15.491 37.3711 15.2233 37.4155 15.094 37.5374C13.6778 38.8624 12.7638 40.4314 12.762 42.4346ZM35.2516 48.8083C32 48.7732 28.7485 48.7917 25.495 48.7917C22.2195 48.7917 18.9457 48.7806 15.6701 48.8027C15.1402 48.8064 14.9482 48.6808 14.9611 48.1134C14.998 46.3837 15.0036 44.6503 14.9703 42.9206C14.9242 40.6125 16.1945 39.2376 18.0908 38.2046C19.9779 37.1771 22.044 36.6892 24.1084 36.4416C25.5283 36.2716 27.0387 36.3935 28.5047 36.7077C30.4361 37.1216 32.2696 37.7333 33.9148 38.8366C35.3366 39.7883 36.0622 41.1225 36.0345 42.8633C36.0068 44.5709 36.005 46.2803 36.0438 47.9878C36.0567 48.605 35.9108 48.8157 35.2516 48.8083ZM47.9995 46.587C46.502 46.5482 45.0027 46.5741 43.5052 46.5741C42.9051 46.5741 42.3069 46.5889 41.7068 46.5704C40.5842 46.5371 39.456 46.6628 38.337 46.5002C38.1229 45.384 38.313 44.2567 38.2355 43.1368C38.1875 42.4549 38.0952 41.7749 38.0047 41.0985C37.8053 39.5942 36.9374 38.4854 35.8591 37.5023C35.7428 37.397 35.5231 37.3489 35.5323 37.1752C35.5452 36.9368 35.8093 36.959 35.9644 36.9147C39.9619 35.7541 43.7434 36.1995 47.2277 38.539C48.2617 39.2339 48.7824 40.2614 48.7694 41.542C48.7547 42.9724 48.7325 44.4045 48.7824 45.8312C48.8082 46.4687 48.5885 46.6018 47.9995 46.587Z" fill="url(#paint0_linear_1_2810)"/>
<defs>
<linearGradient id="paint0_linear_1_2810" x1="0" y1="51.0012" x2="51" y2="51.0012" gradientUnits="userSpaceOnUse">
<stop stop-color="#1723FF"/>
<stop offset="1" stop-color="#30E35E"/>
</linearGradient>
</defs>
</svg>

<svg xmlns="http://www.w3.org/2000/svg" width="51" height="51" fill="none"><path fill="url(#a)" d="M50.963 41.749c-.039-1.11-.057-2.268-.777-3.232a10.21 10.21 0 0 0-2.092-2.064c-1.062-.795-2.284-1.246-3.54-1.72 1.514-1.304 2.65-2.799 2.945-4.804.103-.268-.013-.558.043-.807.323-1.44-.102-2.744-.726-3.988-.314-.625-.458-1.242-.392-1.915.025-.253.048-.495 0-.746-.075-.39.043-.629.462-.78.67-.24 1.355-.479 1.931-.917 1.302-.987 1.322-2.406.988-3.757-.46-1.85-1.156-3.631-2.382-5.156-.742-.924-2.012-1.395-3.148-1.044-.57.178-1.12.42-1.673.653-.315.133-.544.118-.764-.187-.639-.883-1.448-1.613-2.229-2.364-1.119-1.075-1.126-1.068-.57-2.522.6-1.57.413-2.717-.898-3.788-1.8-1.473-3.934-2.316-6.235-2.567-1.311-.143-2.364.51-2.975 1.733-.205.412-.39.84-.53 1.275-.145.458-.411.634-.877.54-1.004-.205-2.023-.074-3.035-.122-.547-.026-1.184.4-1.6.015-.369-.346-.472-.976-.7-1.479C21.57.635 20.276-.176 18.87.033c-2.01.3-3.866 1.088-5.554 2.186-1.688 1.097-2.027 2.526-1.26 4.389.115.277.213.561.346.83.157.32.113.563-.181.781-.877.649-1.58 1.48-2.363 2.23-.38.365-.575 1.06-1.079 1.095-.474.035-.98-.344-1.471-.54-1.546-.617-2.933-.26-3.913 1.074-1.15 1.563-1.843 3.35-2.264 5.226-.447 1.988.248 3.228 2.103 4.038.338.148.68.284 1.025.416.187.07.379.175.323.384-.273 1.038.078 2.14-.48 3.173-.7 1.297-.962 2.726-.626 4.21.117 2.22 1.389 3.788 2.971 5.216-.966.32-1.881.688-2.738 1.176-2.336 1.332-3.837 3.16-3.7 6.044.085 1.799.014 3.602.018 5.404.002 1.07.342 1.417 1.394 1.417 3.555.002 7.107.013 10.662-.01.55-.004.708.155.697.7-.025 1.247.289 1.528 1.548 1.528h22.36c1.26 0 1.568-.277 1.54-1.536-.013-.558.168-.694.705-.693 3.577.023 7.154.013 10.73.01.933 0 1.315-.372 1.317-1.287.005-1.91.051-3.83-.017-5.745Zm-7.548-8.99c-3.05 2.557-7.323 1.158-8.677-2.329-.064-.168-.153-.327-.229-.491h-2.775c-.89 1.892-2.245 3.274-4.269 3.945-2.76.915-6.062-.305-7.554-2.805-.199-.335-.4-.667-.602-1.002-.463-1.428-.596-2.853-.195-4.34 1.102-4.094 6.145-6.129 9.73-3.88 2.205 1.383 3.331 3.38 3.3 5.997-.01.715-.247 1.395-.413 2.085h2.775c-.652-2.883.871-5.171 2.609-6.163 3.292-1.884 7.286-.132 8.19 3.566.215.874.139 1.732-.009 2.595-.424 1.075-.967 2.055-1.881 2.821ZM35.3 34.715c-.756.332-1.463.637-2.164.953-.144.065-.263.026-.396-.02-.71-.253-1.421-.503-2.22-.786.948-.796 1.825-1.61 2.536-2.746.615 1.054 1.298 1.906 2.244 2.599Zm-17.948-10.78c-.378-.384-.753-.772-1.137-1.151-.514-.506-1.099-.933-1.764-1.196-.607-.24-.653-.565-.432-1.11 1.9-4.674 5.305-7.41 10.335-8.019 5.66-.684 10.938 3.077 12.663 8.126.166.484.125.743-.38.955-1.215.512-2.115 1.447-3.018 2.454-.792-1.5-1.756-2.766-3.115-3.703-4.071-2.802-9.453-1.815-12.254 2.262-.312.455-.599.922-.898 1.382Zm.599 8.216c.718 1.05 1.52 1.919 2.553 2.685-.809.294-1.545.564-2.286.825a.504.504 0 0 1-.325.009c-.716-.298-1.427-.61-2.197-.944.962-.69 1.61-1.595 2.255-2.575ZM3.978 19.24c-.63-.256-.854-.702-.705-1.38.321-1.456.93-2.794 1.653-4.08.495-.884.88-.974 1.818-.584.597.247 1.193.491 1.782.754.792.35 1.228.273 1.734-.438.7-.983 1.533-1.84 2.347-2.722.522-.566 1.183-.946 1.78-1.41.757-.59.87-.965.491-1.83-.305-.697-.567-1.412-.877-2.107-.203-.454-.105-.846.264-1.108 1.466-1.037 3.069-1.758 4.865-1.996.506-.067.826.144 1.012.628.275.71.615 1.394.875 2.109.252.693.698.992 1.426.9.502-.063 1.008-.09 1.508-.165 1.478-.22 2.938-.048 4.4.146.998.131 1.299-.068 1.686-1.007.28-.682.582-1.356.855-2.042.17-.423.458-.58.91-.577 1.225.012 2.251.627 3.339 1.052.49.192.96.44 1.39.765.536.403.717.85.41 1.49-.32.665-.58 1.356-.873 2.032-.3.686-.205 1.148.382 1.575 1.654 1.201 3.104 2.602 4.295 4.27.506.708.943.788 1.736.437.673-.298 1.36-.568 2.034-.869.552-.248 1.014-.118 1.33.359.938 1.419 1.564 2.979 1.922 4.636.107.495-.137.9-.628 1.109-.572.244-1.145.486-1.719.724-1.398.58-1.41.597-1.317 2.135-1.364-.86-2.814-1.322-4.401-1.251-.377.016-.38-.289-.453-.505-.816-2.48-2.14-4.635-4.084-6.388-2.292-2.066-4.965-3.277-8.04-3.663-6.626-.832-13.407 3.602-15.35 10.009-.097.316-.18.578-.634.554-1.298-.068-2.51.29-3.641.906-.456.247-.617.192-.56-.346.068-.647-.262-1.038-.847-1.266-.71-.275-1.411-.567-2.115-.855Zm1.954 11.183c-.107-.301-.223-.6-.334-.898-.246-2.094.417-3.852 1.974-5.263 1.745-1.584 4.84-1.675 6.713-.228 2.015 1.554 2.694 3.582 2.18 6.045-.505 1.207-1.194 2.27-2.289 3.032-2.9 2.02-7.059.666-8.244-2.688Zm6.83 12.012c0 1.177-.022 2.356.011 3.531.015.499-.166.625-.637.617-1.545-.024-3.09-.009-4.636-.009-1.57 0-3.137-.011-4.707.008-.408.003-.572-.106-.567-.544.022-1.615-.031-3.234.024-4.847.05-1.429.933-2.384 2.087-3.066 3.351-1.98 6.916-2.29 10.626-1.233.179.052.47.032.502.278.026.201-.242.245-.371.367-1.416 1.325-2.33 2.894-2.332 4.898Zm22.49 6.373c-3.252-.035-6.504-.016-9.757-.016-3.276 0-6.55-.011-9.825.01-.53.004-.722-.121-.709-.689.037-1.73.043-3.463.01-5.192-.047-2.309 1.224-3.683 3.12-4.716 1.887-1.028 3.953-1.516 6.017-1.763 1.42-.17 2.93-.048 4.397.266 1.931.414 3.765 1.025 5.41 2.129 1.422.951 2.147 2.285 2.12 4.026-.028 1.708-.03 3.417.009 5.125.013.617-.133.828-.792.82Zm12.747-2.221c-1.497-.039-2.996-.013-4.494-.013-.6 0-1.198.015-1.798-.004-1.123-.033-2.251.093-3.37-.07-.214-1.116-.024-2.243-.102-3.363-.047-.682-.14-1.362-.23-2.038-.2-1.505-1.068-2.614-2.146-3.597-.116-.105-.336-.153-.327-.327.013-.238.277-.216.432-.26 3.998-1.16 7.78-.715 11.264 1.624 1.034.695 1.554 1.722 1.541 3.003-.014 1.43-.036 2.862.013 4.29.026.637-.193.77-.782.755Z"/><defs><linearGradient id="a" x1="0" x2="51" y1="51.001" y2="51.001" gradientUnits="userSpaceOnUse"><stop stop-color="#1723FF"/><stop offset="1" stop-color="#30E35E"/></linearGradient></defs></svg>
